X:592
M:2/4
R:R
Q:1/8=163
T:Blackjack
T:Aubrey Haynie fiddle break on Bluegrass '96
T:Transcribed by GJB
O:england
C:J.D.Crowe/D.Lawson
K:B
z([=FB][^F3B]) - [FB][GB][Bf][GB] | "/"[B4f] ([=df][^d3f]) |\
([df][=df])[Bf]G FGBc | dfBB [B2a][=c2a] | [c4a] - [c2a]g- | gbgf efec |
Bcef gf"H"a"H"b | fbfe dfdc | [B8f] | gfdB [c4e] - | [c3e]_d-  ^d2fg |\
{_d}d2BG FGBF | eB_d^d B4 - |
B2b2 - bgfa | gfbg fagf | agfa fgb2 - | bgfg a3g | e=dea gage | =dedg
age=d |
c=def bfe^d | Bdef bfed |  Bdef acfa | gBeg fbfe | dfdc Bd"o"e"II"f |\
bf=d'^d' b4 ||


